X: 21809
T: Kings Of Inishbofin, The
R: jig
M: 6/8
K: Gmajor
A|~B3 BAG|EFG ABc|dgg efg|fed cAF|
DBB BAG|EFG ABc|dge fed|1 cAF G2 A:|2 cAF Gz||
Ad^c dfa|agf g3|A^ce efg|gfe f2 e|
d^cd a^ga|bag gfg|age A^ce|1 ed^c d2 B:|2 ed^c d2 =c|

